X:462
T:Simon Thoumire's Jig
R:jig
C:John McCusker
Z:hn-jig-462
M:6/8
L:1/8
K:G
G2G EDE | GA^A Bde | gfd ege | dBG ABA |
G2G EDE | GA^A Bde | gfd ege |1 dBA G2D :|2 dBA G3 ||
|: gfd ezg- | gfd edg | edB BAG | ABG E2D |
G2G EDE | GA^A Bde | gfd ege |1 dBA G3 :|2 dBA G2D ||

